Suru++-Ubuntu/apps/symbolic/minecraft-symbolic.svg

<svg width="16" height="16" version="1.1" xmlns="http://www.w3.org/2000/svg">
 <path d="m14.643521 1.000009-3.058207 1.397955-5.5539169 5.5776065-1.110783 1.1155218-0.7799935-0.7766814-0.0047383-2.2263043-1.1060448 3.3418261 1.1155211 1.1107823-1.3016992 1.307252-1.8436594 0.0039 0.0067 3.148133 3.1481331-0.0066-0.00474-2.226303 1.110784-1.115524 1.1155212 1.110785 3.3370877-1.120259-2.2263045 0.0047-0.8932797-0.889486 6.6646992-6.6931279z" style="fill:#808080"/>
</svg>

<svg xmlns="http://www.w3.org/2000/svg" width="16" height="16" version="1.1">
 <path style="fill:#808080" d="M 14.643521,1.000009 11.585314,2.397964 6.0313971,7.9755705 4.9206141,9.0910923 4.1406206,8.3144109 4.1358823,6.0881066 3.0298375,9.4299327 4.1453586,10.540715 2.8436594,11.847967 1,11.851867 1.0067,15 l 3.1481331,-0.0066 -0.00474,-2.226303 1.110784,-1.115524 1.1155212,1.110785 3.3370877,-1.120259 -2.2263045,0.0047 -0.8932797,-0.889486 6.6646992,-6.6931279 z"/>
</svg>
